svgs/duotone/inbox-full.svg

<svg xmlns="http://www.w3.org/2000/svg" viewBox="0 0 512 512"><!-- Font Awesome Pro 6.0.0-alpha2 by @fontawesome - https://fontawesome.com License - https://fontawesome.com/license (Commercial License) --><defs><style>.fa-secondary{opacity:.4}</style></defs><path d="M391.025 96H121.025L73 288H128.025L160.025 352H352.025L384.025 288H439.051L391.025 96ZM176.025 144H336.025C344.861 144 352.025 151.162 352.025 160C352.025 168.836 344.861 176 336.025 176H176.025C167.189 176 160.025 168.836 160.025 160C160.025 151.162 167.189 144 176.025 144ZM368.025 256H144.025C135.189 256 128.025 248.836 128.025 240C128.025 231.162 135.189 224 144.025 224H368.025C376.861 224 384.025 231.162 384.025 240C384.025 248.836 376.861 256 368.025 256Z" class="fa-secondary"/><path d="M447.031 56.25C443.469 42 430.688 32 416 32H96C81.312 32 68.531 42 64.969 56.25L3.715 304.918C1.247 314.936 0 325.215 0 335.533V432C0 458.51 21.49 480 48 480H464C490.51 480 512 458.51 512 432V335.533C512 325.215 510.753 314.936 508.285 304.918L447.031 56.25ZM352 352H160L128 288H72.975L121 96H391L439.025 288H384L352 352Z" class="fa-primary"/></svg>

<svg xmlns="http://www.w3.org/2000/svg" viewBox="0 0 512 512"><!--! Font Awesome Pro 6.3.0 by @fontawesome - https://fontawesome.com License - https://fontawesome.com/license (Commercial License) Copyright 2023 Fonticons, Inc. --><defs><style>.fa-secondary{opacity:.4}</style></defs><path class="fa-primary" d="M447 56.25C443.5 42 430.7 32 416 32H96C81.31 32 68.53 42 64.97 56.25l-61.25 248.7C1.247 314.9 0 325.2 0 335.5V432C0 458.5 21.49 480 48 480h416c26.51 0 48-21.49 48-48v-96.47c0-10.32-1.247-20.6-3.715-30.61L447 56.25zM352 352H160L128 288H72.97L121 96h270l48.03 192H384L352 352z"/><path class="fa-secondary" d="M391 96h-270L72.97 288H128l32 64h192l32-64h55.03L391 96zM176 144h160C344.8 144 352 151.2 352 160c0 8.836-7.164 16-16 16h-160C167.2 176 160 168.8 160 160C160 151.2 167.2 144 176 144zM368 256h-224C135.2 256 128 248.8 128 240C128 231.2 135.2 224 144 224h224C376.8 224 384 231.2 384 240C384 248.8 376.8 256 368 256z"/></svg>
